src/lib/packages/icons/src/assets/filled/trend-up-circle.svg

<svg width="24" height="24" viewBox="0 0 24 24" fill="none" xmlns="http://www.w3.org/2000/svg">
<path d="M12 2C6.477 2 2 6.477 2 12C2 17.523 6.477 22 12 22C17.523 22 22 17.523 22 12C22 6.477 17.523 2 12 2ZM8.75 17C8.75 17.414 8.414 17.75 8 17.75C7.586 17.75 7.25 17.414 7.25 17V15.5C7.25 15.086 7.586 14.75 8 14.75C8.414 14.75 8.75 15.086 8.75 15.5V17ZM12.75 17C12.75 17.414 12.414 17.75 12 17.75C11.586 17.75 11.25 17.414 11.25 17V14C11.25 13.586 11.586 13.25 12 13.25C12.414 13.25 12.75 13.586 12.75 14V17ZM16.75 17C16.75 17.414 16.414 17.75 16 17.75C15.586 17.75 15.25 17.414 15.25 17V12C15.25 11.586 15.586 11.25 16 11.25C16.414 11.25 16.75 11.586 16.75 12V17ZM16.75 9.19995C16.75 9.61395 16.414 9.94995 16 9.94995C15.586 9.94995 15.25 9.61395 15.25 9.19995V8.81006L13.451 10.609C12.885 11.176 11.895 11.175 11.329 10.609L10.05 9.32996L8.53003 10.85C8.38403 10.996 8.192 11.0699 8 11.0699C7.808 11.0699 7.61597 10.997 7.46997 10.85C7.17697 10.557 7.17697 10.0819 7.46997 9.78894L8.98999 8.26904C9.57499 7.68404 10.527 7.68504 11.112 8.26904L12.391 9.54797L14.19 7.74902H13.8C13.386 7.74902 13.05 7.41302 13.05 6.99902C13.05 6.58502 13.386 6.24902 13.8 6.24902H16C16.098 6.24902 16.195 6.26901 16.287 6.30701C16.47 6.38301 16.616 6.52901 16.692 6.71301C16.73 6.80501 16.75 6.902 16.75 7V9.19995Z" fill="currentColor"/>
</svg>

<svg xmlns="http://www.w3.org/2000/svg" width="24" height="24" fill="none"><path fill="currentColor" d="M12 2C6.477 2 2 6.477 2 12s4.477 10 10 10 10-4.477 10-10S17.523 2 12 2ZM8.75 17a.75.75 0 0 1-1.5 0v-1.5a.75.75 0 0 1 1.5 0V17Zm4 0a.75.75 0 0 1-1.5 0v-3a.75.75 0 0 1 1.5 0v3Zm4 0a.75.75 0 0 1-1.5 0v-5a.75.75 0 0 1 1.5 0v5Zm0-7.8a.75.75 0 0 1-1.5 0v-.39l-1.799 1.799c-.566.567-1.556.566-2.122 0L10.05 9.33l-1.52 1.52a.748.748 0 0 1-1.06 0 .75.75 0 0 1 0-1.061l1.52-1.52a1.503 1.503 0 0 1 2.122 0l1.279 1.279 1.799-1.799h-.39a.75.75 0 0 1 0-1.5H16a.75.75 0 0 1 .75.751v2.2Z"/></svg>
